X:1
T:Vivaldi - Summer - Presto
T:Le Quattro Stagioni - L'estate 3° Mov.
T:arr. Joseph Nguyen
T:Antonio Vivaldi
T:Public domain
T:Public domain
T:Public domain
T:Public domain
T:Public domain
T:Public domain
T:Public domain
T:Public domain
C:Antonio Vivaldi
Z:Public domain
%%score { ( 1 3 ) | 2 }
L:1/8
Q:1/4=148
M:3/4
K:Bb
V:1 treble nm="Piano" snm="Pno."
V:3 treble 
V:2 bass 
V:1
 !>![Gg]6 | !>![Ff]6 | !>![Ee]6 | !>![Dd]6 | !fermata!z6 | !>![Dd]6 | !>![Cc]6 | !>![B,B]6 | %8
 !>![A,A]6 | z/ d/c/B/ A/G/"^4"^F/=E/ D/C/"_3"B,/A,/ | z/ d/c/B/ A/G/^F/=E/ D/C/B,/A,/ | %11
 z/ g/f/e/ d/c/"^4"B/A/ G/F/"^3"E/D/ | z/ g/f/e/ d/c/B/A/ G/F/E/D/ | %13
 z/"^4" b/a/g/ f/"_3"e/d/c/"_4" B/A/G/F/ | z/ b/a/g/ f/e/d/c/ B/A/G/F/ | %15
 z/ d'/c'/b/ a/g/"^4"^f/=e/ d/c/"^3"B/A/ | z/ d'/c'/b/ a/g/^f/=e/ d/c/B/A/ | %17
 z/ d'/c'/b/ a/g/^f/=e/ d/c/B/A/ | z/ d'/c'/b/ a/g/^f/=e/ d/c/B/A/ | [Dd]2 [Dd]2 [Dd]2 | %20
 D/A/B/c/"_1" d/=e/^f/g/ a z | z/ A/B/c/ d/=e/^f/g/ a z | z/"_2" B/"_1"c/d/ e/^f/"_1"g/a/ b z | %23
 z/ d/=e/^f/"_1" g/a/b/c'/ d' z | z/ d/=e/^f/ g/a/b/c'/ d' z | z/ A/B/c/"_1" d/=e/^f/g/ a z | %26
 z/ B/c/d/ e/^f/g/a/ b z | z/ d/=e/^f/ g/a/b/c'/ d' z | b/"^4"g/d/B/ b/g/d/B/ b/g/d/B/ | %29
 d/B/G/D/ d/B/G/D/ d/B/G/D/ | G/"_3"D/B,/G,/ G/D/B,/G,/ G/D/B,/G,/ | G/=B/G/B/ G/B/G/B/ G/B/G/B/ | %32
 G/c/G/c/ G/c/G/c/ G/c/G/c/ | G/^c/G/c/ G/c/G/c/ G/c/G/c/ | A/d/A/d/ A/d/A/d/ A/d/A/d/ | %35
 A/d/A/d/ A/d/A/d/ A/d/A/d/ | A/^c/A/c/ A/c/A/c/ A/c/A/c/ | d/D/=E/F/"^1" G/A/=B/^c/ d/F/G/A/ | %38
"^1" =B/^c/d/=e/ f/"^1"d/e/f/"^1" g/a/=b/^c'/ | !fermata!d'2 z/!8va(! a/a/^c'/ c'/=e'/e'/a'/ | %40
 a'/a/ z/ a/ g'/g/ z/ a/ f'/f/ z/ a/ | =e'/=e/ z/ a/ f'/f/ z/ a/ g'/g/ z/ a/ | %42
 a'/a/ z/ a/ g'/g/ z/ a/ f'/f/ z/ a/ | !fermata![a=e']2 z/ d/d/f/ f/a/a/d'/ | %44
 d'/d/ z/ d/ c'/d/ z/ d/ b/d/ z/ d/ | a/d/ z/ d/ b/d/ z/ d/ ^c'/d/ z/ d/ | %46
 d'/d/ z/ d/ c'/d/ z/ d/ b/d/ z/ d/ | !fermata![da]2 z/ a'/a'/g'/ g'/f'/f'/=e'/ | %48
 =e'/d'/d'/c'/ c'/b/b/!8va)!a/ a/g/g/f/ | f/=e/e/d/ d/c/c/B/ B/A/A/^G/ | %50
[Q:1/4=138]"^ritardando" A^G AG AF | G=E FD E^C | D^C DC DC | D^C DC DC | %54
"^accelerando"[Q:1/4=142] [DFA][A,D] [A,D][Dd] [Ff][Aa] | [Bb][B,D] [B,D][Dd] [Gg][Bb] | %56
 [Bb][C=E] [CE][E=e] [Gg][Bb] | [Aa][CF] [CF][Cc] [Ff][Aa] | [Aa][B,D] [B,D][Dd] [Ff][Aa] | %59
 [Gg][B,_E] [B,E][B,B] [Ee][Gg] | [Gg][_A,C] [A,C][Cc] [Ee][Gg] | [Gg][=B,D] [B,D][B,=B] [Dd][Gg] | %62
 [Ff][=B,D] [B,D][B,=B] [Dd][Ff] | e/E/F/G/ _A/=B/c/d/ e z | z/ E/F/G/ _A/=B/c/d/ e z | %65
 z/ E/F/G/ _A/=B/c/d/ e z | E/c/B/c/ E/c/B/c/ E/c/B/c/ | F/c/B/c/ F/c/B/c/ F/c/B/c/ | %68
 G/c/=B/c/ G/c/B/c/ G/B/A/B/ | !>![Cc]6 | !>![B,B]6 | !>![_A,_A]6 | !>![G,G]6 | %73
 e/c/e/c/ e/c/e/c/ e/c/e/c/ | d/=B/d/B/ d/B/d/B/ d/B/d/B/ | e/c/e/c/ e/c/e/c/ e/c/e/c/ | %76
 d/B/d/B/ d/B/d/B/ d/B/d/B/ | e/B/e/B/ e/B/e/B/ e/B/e/B/ |!8va(! e/g/g/_a/ a/b/b/c'/ c'/d'/d'/e'/ | %79
 e'/b/g/e/ e'/b/g/e/ e'/b/g/e/ | f/_a/a/b/ b/c'/c'/d'/ d'/e'/e'/f'/ | %81
 f'/c'/a/f/ f'/c'/a/f/ f'/c'/a/f/ | g/b/b/c'/ c'/d'/d'/e'/ e'/f'/f'/g'/ | %83
 g'/d'/_c'/g/ g'/d'/c'/g/ g'/d'/c'/g/!8va)! | [ee']6 | [_A_a]2 [Aa]2 [Aa]2 | z6 | %87
 [Gg]2 [Gg]2 [Gg]2 | z6 | [Ff]2 [Ff]2 [Ff]2 | z6 | [ee']2 [ee']2 [ee']2 | z6 | %93
 [dd']2 [dd']2 [dd']2 | z6 | [cc']2 [cc']2 [cc']2 | [Dd]2 [^F^f]2 [Aa]2 | [Bb]2 [cc']2 [dd']2 | %98
 [ee']2 [^f^f']2 [gg']2 | [aa']2 [bb']2 [c'c'']2 | %100
!mf![Q:1/4=148] [d'd'']/d/c/B/ A/G/^F/=E/ D/C/B,/A,/ | z/ d/c/B/ A/G/^F/=E/ D/C/B,/A,/ | %102
 z/ g/f/e/ d/c/"^4"B/A/ G/F/"^3"E/D/ | z/ g/f/e/ d/c/B/A/ G/F/E/D/ | %104
 z/"^4" b/a/g/ f/"_3"e/d/c/"_4" B/A/G/F/ | z/ b/a/g/ f/e/d/c/ B/A/G/F/ | %106
 z/ d'/c'/b/ a/g/"^4"^f/=e/ d/c/"^3"B/A/ | z/ d'/c'/b/ a/g/^f/=e/ d/c/B/A/ | %108
[Q:1/4=140]"^ritard." d/G/ z/ G/ e/G/ z/ G/ ^f/G/ z/ G/ | g/G/ z/ G/ =f/G/ z/ G/ e/G/ z/ G/ | %110
 d/G/ z/ G/ e/G/ z/ G/ ^f/G/ z/ G/ | g/G/ z/ G/ f/G/ z/ G/ e/G/ z/ G/ | %112
[Q:1/4=148]"^accel." [Gd]/G/A/B/ c/d/=e/^f/ g/a/b/a/ | g/f/e/d/ c/B/A/G/ ^F/=E/D/C/ | %114
 B,/G,/B,/G,/ B,/G,/B,/G,/ B,/G,/B,/G,/ | E/D/^F/=E/ G/F/A/G/ B/A/c/B/ | %116
 d/c/e/d/ ^f/=e/g/f/ a/g/b/a/ | E/D/^F/=E/ G/F/A/G/ B/A/c/B/ | d/c/e/d/ ^f/=e/g/f/ a/g/b/a/ | %119
 D2 z/ d/c/B/ A/G/^F/=E/ | G/D/B,/G,/ G/D/B,/G,/ G/D/B,/G,/ | %121
 [EG]/A,/[EG]/A,/ [EG]/A,/[EG]/A,/ [EG]/A,/[EG]/A,/ | %122
 [D^F]/A,/[DF]/A,/ [DF]/A,/[DF]/A,/ [DF]/A,/[DF]/A,/ | G/D/B,/G,/ G/D/B,/G,/ G/D/B,/G,/ | %124
 [EG]/A,/[EG]/A,/ [EG]/A,/[EG]/A,/ [EG]/A,/[EG]/A,/ | %125
 [D^F]/A,/[DF]/A,/ [DF]/A,/[DF]/A,/ [DF]/A,/[DF]/A,/ | [G,G]2 [B,B]2 [Dd]2 | [Gg]2 [Bb]2 [Gg]2 | %128
 [Dd]2 [B,B]2 [G,G]2 | z6 | z6 |] %131
V:2
!ped! !>!G,/G,,/G,/G,,/ G,/G,,/G,/G,,/ G,/G,,/G,/G,,/!ped-up! | %1
!ped! !>!F,/G,,/G,/G,,/ G,/G,,/G,/G,,/ G,/G,,/G,/G,,/!ped-up! | %2
!ped! !>!E,/G,,/G,/G,,/ G,/G,,/G,/G,,/ G,/G,,/G,/G,,/!ped-up! | %3
!ped! !>!D,/G,,/G,/G,,/ G,/G,,/G,/G,,/ G, z!ped-up! | z6 | %5
!ped! !>!D,/D,,/D,/D,,/ D,/D,,/D,/D,,/ D,/D,,/D,/D,,/!ped-up! | %6
!ped! !>!C,/D,,/D,/D,,/ D,/D,,/D,/D,,/ D,/D,,/D,/D,,/!ped-up! | %7
!ped! !>!B,,/D,,/D,/D,,/ D,/D,,/D,/D,,/ D,/D,,/D,/D,,/!ped-up! | %8
!ped! !>!A,,/D,,/D,/D,,/ D,/D,,/D,/D,,/ D, z!ped-up! |!ped! z6!ped-up! | %10
!ped! G,,,/G,,/G,,,/G,,/ G,,,/G,,/G,,,/G,,/ G,,,/G,,/G,,,/G,,/!ped-up! | %11
!ped! G,,,/G,,/G,,,/G,,/ G,,,/G,,/G,,,/G,,/ G,,,/G,,/G,,,/G,,/!ped-up! | %12
!ped! C,,/C,/C,,/C,/ C,,/C,/C,,/C,/ C,,/C,/C,,/C,/!ped-up! | %13
!ped! C,,/C,/C,,/C,/ C,,/C,/C,,/C,/ C,,/C,/C,,/C,/!ped-up! | %14
!ped! E,,/E,/E,,/E,/ E,,/E,/E,,/E,/ E,,/E,/E,,/E,/!ped-up! | %15
!ped! E,,/E,/E,,/E,/ E,,/E,/E,,/E,/ E,,/E,/E,,/E,/!ped-up! | %16
!ped! G,,/G,/G,,/G,/ G,,/G,/G,,/G,/ G,,/G,/G,,/G,/!ped-up! | %17
!ped! G,,/G,/G,,/G,/ G,,/G,/G,,/G,/ G,,/G,/G,,/G,/!ped-up! | %18
!ped! G,,/G,/G,,/G,/ G,,/G,/G,,/G,/ G,,/G,/G,,/G,/!ped-up! | %19
!ped! z/ G,/G,,/G,/ z/ G,/G,,/G,/ z/ G,/G,,/G,/!ped-up! | %20
!ped! D,,/D,/D,,/D,/ D,,/D,/D,,/D,/ D,,/D,/D,,/D,/!ped-up! | %21
!ped! D,,/C,/D,,/C,/ D,,/C,/D,,/C,/ D,,/C,/D,,/C,/!ped-up! | %22
!ped! D,,/B,,/D,,/B,,/ D,,/B,,/D,,/B,,/ D,,/B,,/D,,/B,,/!ped-up! | %23
!ped! D,,/A,,/D,,/A,,/ D,,/A,,/D,,/A,,/ D,,/A,,/D,,/A,,/!ped-up! | %24
!ped! D,,/D,/D,,/D,/ D,,/D,/D,,/D,/ D,,/D,/D,,/D,/!ped-up! | %25
!ped! D,,/C,/D,,/C,/ D,,/C,/D,,/C,/ D,,/C,/D,,/C,/!ped-up! | %26
!ped! D,,/B,,/D,,/B,,/ D,,/B,,/D,,/B,,/ D,,/B,,/D,,/B,,/!ped-up! | %27
!ped! D,,/A,,/D,,/A,,/ D,,/A,,/D,,/A,,/ D,,/A,,/D,,/A,,/!ped-up! | %28
!mp!!ped! G,,G,, G,,G,, G,,G,,!ped-up! |!ped! G,,G,, G,,G,, G,,G,,!ped-up! | %30
!ped! G,,G,, G,,G,, G,,G,,!ped-up! | %31
!p!!ped!!<(! G,,/G,/G,,/G,/ G,,/G,/G,,/G,/ G,,/G,/G,,/G,/!ped-up! | %32
!ped! C,/C/C,/C/ C,/C/C,/C/ C,/C/C,/C/!<)!!ped-up! | %33
!ped! A,,/A,/A,,/A,/ A,,/A,/A,,/A,/ A,,/A,/A,,/A,/!ped-up! | %34
!ped! D,/D/D,/D/ D,/D/D,/D/ D,/D/D,/D/!ped-up! | %35
!ped! A,,/A,/A,,/A,/ A,,/A,/A,,/A,/ A,,/A,/A,,/A,/!ped-up! | %36
!ped! A,,/A,/A,,/A,/ A,,/A,/A,,/A,/ A,,/A,/A,,/A,/!ped-up! |!mf! D,2 z2 z2 | z6 | D,2 z2 z2 | %40
!ped! z D/ z/ z D/ z/ z D/ z/!ped-up! |!ped! z D/ z/ z D/ z/ z D/ z/!ped-up! | %42
!ped! z D/ z/ z D/ z/ z D/ z/!ped-up! | D2 z4 |!ped! z D/ z/ z D/ z/ z D/ z/!ped-up! | %45
!ped! z D/ z/ z D/ z/ z D/ z/!ped-up! |!ped! z D/ z/ z D/ z/ z D/ z/!ped-up! | D2 z4 | z6 | z6 | %50
!ped! D6- | D6!ped-up! |!ped! D,A,, D,A,, D,A,,!ped-up! |!ped! D,A,, D,A,, D,A,,!ped-up! | %54
!ped! D,/D/C/B,/ A,/G,/F,/=E,/ D, z!ped-up! |!ped! G,,/G,/F,/_E,/ D,/C,/B,,/A,,/ G,, z!ped-up! | %56
!ped! C,/C/B,/A,/ G,/F,/=E,/D,/ C, z!ped-up! |!ped! F,,/F,/=E,/D,/ C,/B,,/A,,/G,,/ F,, z!ped-up! | %58
!ped! B,,/B,/A,/G,/ F,/E,/D,/C,/ B,, z!ped-up! | %59
!ped! E,,/E,/D,/C,/ B,,/A,,/G,,/F,,/ E,, z!ped-up! | %60
!ped! _A,,/_A,/G,/F,/ E,/D,/C,/B,,/ A,, z!ped-up! | %61
!ped! =B,,/=B,/=A,/G,/ F,/E,/D,/C,/ B,, z!ped-up! | %62
!ped! G,,/G,/F,/E,/ D,/C,/=B,,/A,,/ G,, z!ped-up! | %63
!ped! C,/C/B,/_A,/ G,/F,/E,/D,/ C,/C/G,/E,/!ped-up! | %64
!ped! C,/C/B,/_A,/ G,/F,/E,/D,/ C,/C/G,/E,/!ped-up! | %65
!ped! C,/C/B,/_A,/ G,/F,/E,/D,/ C,/C/G,/E,/!ped-up! |!ped! E,E, E,E, E,E,!ped-up! | %67
!ped! F,F, F,F, F,F,!ped-up! |!ped! G,G, G,G, G,,G,,!ped-up! | %69
!ped! !>!C,/C,,/C,/C,,/ C,/C,,/C,/C,,/ C,/C,,/C,/C,,/!ped-up! | %70
!ped! !>!B,,/C,,/C,/C,,/ C,/C,,/C,/C,,/ C,/C,,/C,/C,,/!ped-up! | %71
!ped! !>!_A,,/C,,/C,/C,,/ C,/C,,/C,/C,,/ C,/C,,/C,/C,,/!ped-up! | %72
!ped! !>!G,,/C,,/C,/C,,/ C,/C,,/C,/C,,/ C, z!ped-up! |!mp!!ped! C,C/=B,/ CC, C,C!ped-up! | %74
!ped! G,,2 z4!ped-up! |!ped! C,C/=B,/ CC, C,C!ped-up! |!ped! B,,2 z4!ped-up! | %77
!ped! E,,E,/D,/ E,E,, E,,E,!ped-up! |!ped! G,,2 z4!ped-up! |!ped! G,,G,/F,/ G,G,, G,,G,!ped-up! | %80
!ped! _A,,2 z4!ped-up! |!ped! =A,,A,/G,/ A,A,, A,,A,!ped-up! |!ped! B,,2 z4!ped-up! | %83
!ped! =B,,=B,/A,/ B,B,, B,,B,!ped-up! |!ped! C/C,/C/C,/ C/C,/C/C,/ C/C,/C/C,/!ped-up! | %85
!ped! C/C,/C/C,/ C/C,/C/C,/ C/C,/C/C,/!ped-up! | %86
!ped! =B,/=B,,/B,/B,,/ B,/B,,/B,/B,,/ B,/B,,/B,/B,,/!ped-up! | %87
!ped! _B,/_B,,/B,/B,,/ B,/B,,/B,/B,,/ B,/B,,/B,/B,,/!ped-up! | %88
!ped! A,/A,,/A,/A,,/ A,/A,,/A,/A,,/ A,/A,,/A,/A,,/!ped-up! | %89
!ped! _A,/_A,,/A,/A,,/ A,/A,,/A,/A,,/ A,/A,,/A,/A,,/!ped-up! | %90
!ped! G/G,/G/G,/ G/G,/G/G,/ G/G,/G/G,/!ped-up! |!ped! G/G,/G/G,/ G/G,/G/G,/ G/G,/G/G,/!ped-up! | %92
!ped! ^F/^F,/F/F,/ F/F,/F/F,/ F/F,/F/F,/!ped-up! | %93
!ped! =F/=F,/F/F,/ F/F,/F/F,/ F/F,/F/F,/!ped-up! | %94
!ped! =E/=E,/E/E,/ E/E,/E/E,/ E/E,/E/E,/!ped-up! | %95
!ped! _E/_E,/E/E,/ E/E,/E/E,/ E/E,/E/E,/!ped-up! | %96
!mp!!ped!"_cresc." z/ D,/D,,/D,/ z/ D,/D,,/D,/ z/ D,/D,,/D,/!ped-up! | %97
!ped! z/ D,/D,,/D,/ z/ D,/D,,/D,/ z/ D,/D,,/D,/!ped-up! | %98
!ped! z/ D,/D,,/D,/ z/ D,/D,,/D,/ z/ D,/D,,/D,/!ped-up! | %99
!ped! z/ D,/D,,/D,/ z/ D,/D,,/D,/ z/ D,/D,,/D,/!ped-up! |!ped! z6!ped-up! | %101
!ped! G,,,/G,,/G,,,/G,,/ G,,,/G,,/G,,,/G,,/ G,,,/G,,/G,,,/G,,/!ped-up! | %102
!ped! G,,,/G,,/G,,,/G,,/ G,,,/G,,/G,,,/G,,/ G,,,/G,,/G,,,/G,,/!ped-up! | %103
!ped! C,,/C,/C,,/C,/ C,,/C,/C,,/C,/ C,,/C,/C,,/C,/!ped-up! | %104
!ped! C,,/C,/C,,/C,/ C,,/C,/C,,/C,/ C,,/C,/C,,/C,/!ped-up! | %105
!ped! E,,/E,/E,,/E,/ E,,/E,/E,,/E,/ E,,/E,/E,,/E,/!ped-up! | %106
!ped! E,,/E,/E,,/E,/ E,,/E,/E,,/E,/ E,,/E,/E,,/E,/!ped-up! | %107
!ped! G,,/G,/G,,/G,/ G,,/G,/G,,/G,/ G,,/G,/G,,/G,/!ped-up! | %108
!mp!!ped! z [G,,G,]/ z/ z [G,,G,]/ z/ z [G,,G,]/ z/!ped-up! | %109
!ped! z [G,,G,]/ z/ z [G,,G,]/ z/ z [G,,G,]/ z/!ped-up! | %110
!ped! z [G,,G,]/ z/ z [G,,G,]/ z/ z [G,,G,]/ z/!ped-up! | %111
!ped! z [G,,G,]/ z/ z [G,,G,]/ z/ z [G,,G,]/ z/!ped-up! |!mf! G,,6 | z6 | %114
 B,,/G,,/B,,/G,,/ B,,/G,,/B,,/G,,/ B,,/G,,/B,,/G,,/ |!mp! [D,D]6- | [D,D]6 | z6 | z6 | %119
!mf!!ped! D,/D/C/B,/ A,/B,/A,/G,/ ^F,/=E,/D,/C,/!ped-up! | %120
!ped! B,,,/B,,/B,,,/B,,/ B,,,/B,,/B,,,/B,,/ B,,,/B,,/B,,,/B,,/!ped-up! | %121
!ped! C,,/C,/C,,/C,/ C,,/C,/C,,/C,/ C,,/C,/C,,/C,/!ped-up! | %122
!ped! D,,/D,/D,,/D,/ D,,/D,/D,,/D,/ D,,/D,/D,,/D,/!ped-up! | %123
!ped! G,,,/G,,/G,,,/G,,/ B,,,/B,,/B,,,/B,,/ B,,,/B,,/B,,,/B,,/!ped-up! | %124
!ped! C,,/C,/C,,/C,/ C,,/C,/C,,/C,/ C,,/C,/C,,/C,/!ped-up! | %125
!ped! D,,/D,/D,,/D,/ D,,/D,/D,,/D,/ D,,/D,/D,,/D,/!ped-up! | %126
!ped! z/ G,/G,,/G,/ z/ G,/G,,/G,/ z/ G,/G,,/G,/!ped-up! | %127
!ped! z/ G,/G,,/G,/ z/ G,/G,,/G,/ z/ G,/G,,/G,/!ped-up! | %128
!ped! z/ G,/G,,/G,/ z/ G,/G,,/G,/ z/ G,/G,,/G,/!ped-up! |!ped! !>!!fermata![G,,,G,,]6- | %130
 [G,,,G,,]6!ped-up! |] %131
V:3
 x6 | x6 | x6 | x6 | x6 | x6 | x6 | x6 | x6 | x6 | x6 | x6 | x6 | x6 | x6 | x6 | x6 | x6 | x6 | %19
 x6 | x6 | x6 | x6 | x6 | x6 | x6 | x6 | x6 | x6 | x6 | x6 | x6 | x6 | x6 | x6 | x6 | x6 | x6 | %38
 x6 | x5/2!8va(! x7/2 | x6 | x6 | x6 | x6 | x6 | x6 | x6 | x6 | x7/2!8va)! x5/2 | x6 | x6 | x6 | %52
 x6 | x6 | x6 | x6 | x6 | x6 | x6 | x6 | x6 | x6 | x6 | x6 | x6 | x6 | x6 | x6 | x6 | x6 | x6 | %71
 x6 | x6 | g6 | g6 | g6 | f6 | g6 |!8va(! x6 | x6 | x6 | x6 | x6 | x6!8va)! | x6 | x6 | x6 | x6 | %88
 x6 | x6 | x6 | x6 | x6 | x6 | x6 | x6 | x6 | x6 | x6 | x6 | x6 | x6 | x6 | x6 | x6 | x6 | x6 | %107
 x6 | x6 | x6 | x6 | x6 | x6 | x6 | x6 | x6 | x6 | x6 | x6 | x6 | x6 | x6 | x6 | x6 | x6 | x6 | %126
 x6 | x6 | x6 | x6 | x6 |] %131

